!!!!SEGMENT: pl-wtm--r-1585-1_stefani-jozef--witaj-krolowa.krn
!!!cenid: 18xx:2340
!!!COM: Stefani, Józef
!!!COM-rismid: pe30024097
!!!CDT: 1800/04/16-1876/03/19
!!!CNT: Polish
!!!OTL: Witaj Królowa
!!!PDT:
!!!AGN:
!!!SMS-siglum: PL-Wtm
!!!SMS-shelfmark: R 1585/1
!!!SMS-shelfwork: W
!!!SMS-variant: Partytura PL-Wtm R 1585/1:[0001-0004]
!!!SMS-altvar: Głos Iwszy PL-Wtm R 1585/2:[0005-0007];Głos IIgi PL-Wtm R 1585/2:[0008-0009];Głos IIIci PL-Wtm R 1585/2:[0010-0011]
!!!NIFC-rismid: 1001115597
!!!URL-scan: http://repozytorium.nifc.pl/skany/pl-wtm-nut--r1585-1-2
!!!ONB-nifc: UWAGA: na podstawie partytury; proszę uzupełnić pola SMS
!!!OMD: Andante.
!!!AIN: 3 vox
!!!key:
**kern	**text	**text	**dynam	**kern	**text	**text	**kern	**dynam
*part3	*part3	*part3	*part3	*part2	*part2	*part2	*part1	*part1
*staff3	*staff3	*staff3	*	*staff2	*staff2	*staff2	*staff1	*
*Ivox	*	*	*	*Ivox	*	*	*Ivox	*
*I"Głos III	*	*	*	*I"Głos II	*	*	*I"Głos I	*
*clefG2	*	*	*	*clefG2	*	*	*clefG2	*
*k[]	*	*	*	*k[]	*	*	*k[]	*
*C:	*	*	*	*C:	*	*	*C:	*
*M2/2	*	*	*	*M2/2	*	*	*M2/2	*
*met(c|)	*	*	*	*met(c|)	*	*	*met(c|)	*
=1	=1	=1	=1	=1	=1	=1	=1	=1
*>A	*	*	*	*>A	*	*	*>A	*
*	*	*	*	*	*	*	*2\right	*above
!	!	!	!	!	!	!	!	!
!	!	!	!LO:DY:rj	!	!	!	!	!LO:DY:rj
2c/	1.) Wi-	2.) Nę-	f	2e/	.	.	2cc\	f
4.c/	-taj	-dzne	.	4.e/	.	.	4.g/	.
8c/	Kró-	my	.	8e/	.	.	8g/	.
=2	=2	=2	=2	=2	=2	=2	=2	=2
2c/	-lo-	dzie-	.	2g/	.	.	2ee\	.
2c/	-wa!	-ci	.	2e/	.	.	2cc\	.
=3	=3	=3	=3	=3	=3	=3	=3	=3
!	!	!	!	!	!	!	!	!
!	!	!	!	!	!	!	!	!LO:DY:rj
2f/	Ma-	E-	.	2f/	.	.	2a/	p <
4.f/	-tko	-wy	.	4.f/	.	.	4.a/	.
8d-X/	li-	wo-	.	8f/	.	.	8b/	[[
=4	=4	=4	=4	=4	=4	=4	=4	=4
!	!	!	!	!	!	!	!	!
2c/	-toś-	-ła-	.	2e/	.	.	2cc\	>
4c/	-ci	-my	.	4e/	.	.	4g/	]
8r	.	.	.	8r	.	.	8r	f
!	!	!	!	!	!	!	!	!
8c/	Na-	Do	.	8e/	.	.	8g/	.
!!LO:LB:g=original
=5	=5	=5	=5	=5	=5	=5	=5	=5
2c/	-dzie-	Cie-	.	2f#X/	.	.	2a/	.
2c/	-jo	-bie	.	2f#/	.	.	2dd\	.
=6	=6	=6	=6	=6	=6	=6	=6	=6
2B/	na-	Ma-	.	2g/	.	.	(4dd\	.
.	.	.	.	.	.	.	4cc#X\)	<
!	!	!	!	!	!	!	!	!
2B/	-sza	-tko,	.	2g/	.	.	4dd\	.
.	.	.	.	.	.	.	4dd#X\	[[
=7	=7	=7	=7	=7	=7	=7	=7	=7
2c/	ży-	z pła-	.	2g/	.	.	(4.ee\	.
.	.	.	.	.	.	.	8b\)	.
.	.	.	.	.	.	.	8qdd/	.
4c/	-cia	-czem	.	4e/	.	.	4cc\	.
4c#X/	sło-	wzdy-	.	4e/	.	.	4a/	.
=8	=8	=8	=8	=8	=8	=8	=8	=8
(4d/	-dko-	-cha-	.	2g/	.	.	2b\	.
4c#X/)	.	.	.	.	.	.	.	.
4d/	-ści	-my	.	4f#X/	.	.	4a/	.
4r	.	.	.	4r	.	.	4r	.
!!LO:LB:g=original
=9	=9	=9	=9	=9	=9	=9	=9	=9
!	!	!	!	!	!	!	!	!LO:DY:rj
1r	.	.	.	(4.b\	Wi-	Niech	(4.dd\	mf
.	.	.	.	8cc\)	.	.	8ee\)	.
.	.	.	.	4.a/	-taj	do-	4.cc\	.
.	.	.	.	8b/	Ma-	-broć	8dd\	.
=10	=10	=10	=10	=10	=10	=10	=10	=10
2r	.	.	.	2g/	-ry-	Twa	2b\	.
4r	.	.	.	2f#X/	-a!	nas	2a/	.
(4d/	Ma-	nie	.	.	.	.	.	.
=11	=11	=11	=11	=11	=11	=11	=11	=11
!	!	!	!	!	!	!	!	!
2e/)	.	.	.	2e/	Ma-	nie	2g/	<
4.c/	-tko	za-	.	4.e/	-tko	za-	4.g/	.
8c/	ie-	-po-	.	8e/	ie-	-po-	8a/	[[
=12	=12	=12	=12	=12	=12	=12	=12	=12
!	!	!	!	!	!	!	!	!
2B/	-dy-	-mi-	.	2d#X/	-dy-	-mi-	2b\	>
4B/	-na,	-na,	.	4d#/	-na,	-na,	4b\	]
4r	.	.	.	4r	.	.	4r	.
=13	=13	=13	=13	=13	=13	=13	=13	=13
2c/	Ma-	Na	.	2e/	.	.	2a/	.
4.A/	-tko	tym	.	4.cc\	.	.	4.ee\	.
8A/	nas	pa-	.	8cc\	.	.	8ee\	.
!!LO:LB:g=original
=14	=14	=14	=14	=14	=14	=14	=14	=14
2d/	lu-	-do-	.	2b/	.	.	2dd\	.
2d/	-dzi	-le	.	2g/	.	.	2b\	.
=15	=15	=15	=15	=15	=15	=15	=15	=15
2d/	Sal-	.	.	2a/	.	.	2cc\	.
4.d/	-ve	.	.	4.a/	.	.	4.cc\	.
8d/	Re-	.	.	8f#X/	.	.	8dd\	.
=16	=16	=16	=16	=16	=16	=16	=16	=16
2G/	-gi-	.	.	2g/	.	.	2b\	.
4B/	-na	.	.	4g/	.	.	4dd\	.
4r	.	.	.	4r	.	.	4r	.
=17	=17	=17	=17	=17	=17	=17	=17	=17
!	!	!	!LO:DY:rj	!	!	!	!	!LO:DY:rj
2B/	Ma-	Na	f	2g/	.	.	(4dd\	f
.	.	.	.	.	.	.	16ee\LL	.
.	.	.	.	.	.	.	16dd\	.
.	.	.	.	.	.	.	16cc#X\	.
.	.	.	.	.	.	.	16dd\JJ)	.
4.B/	-tko	tym	.	4.g/	.	.	4.gg\	.
8B/	nas	pa-	.	8g/	.	.	8ff#X\	.
!!LO:PB:g=original
=18	=18	=18	=18	=18	=18	=18	=18	=18
!	!	!	!	!	!	!	!	!
2c/	lu-	-do-	.	2.g/	.	.	(4dd#X\	<
.	.	.	.	.	.	.	2ee\)	.
2c#X/	-dzi	-le	.	.	.	.	.	[
.	.	.	.	4e/	.	.	4a#X/	.
=19	=19	=19	=19	=19	=19	=19	=19	=19
2d/	sal-	.	.	2g/	.	.	2b\	.
4.d/	-ve	.	.	4.g/	.	.	4.an\	.
8d/	Re-	.	.	8f#X/	.	.	8dd\	.
=20	=20	=20	=20	=20	=20	=20	=20	=20
!LO:TX:t=1.	!	!	!	!	!	!	!	!
*>A1	*	*	*	*>A1	*	*	*>A1	*
2g/	-gi-	.	.	2g/	.	.	2g/	.
4g/	-na!	.	.	4g/	.	.	4g/	.
4r	.	.	.	4r	.	.	4r	.
=21:|!	=21:|!	=21:|!	=21:|!	=21:|!	=21:|!	=21:|!	=21:|!	=21:|!
!LO:TX:t=2	!	!	!	!	!	!	!	!
*>A2	*	*	*	*>A2	*	*	*>A2	*
2g/	-gi-	.	.	2g/	.	.	2g/	.
8g/	-na!	.	.	8g/	.	.	8g/	.
!	!	!	!LO:DY:rj	!	!	!	!	!LO:DY:rj
8g/	O	.	p	8g/	.	.	8g/	p
8g/	Po-	.	.	8g/	.	.	8g/	.
8g/	-śre-	.	.	8g/	.	.	8b/	.
!!LO:LB:g=original
=22	=22	=22	=22	=22	=22	=22	=22	=22
*>B	*	*	*	*>B	*	*	*>B	*
2e^>/	-dni-	.	.	2g/	.	.	2cc^\	.
8d/	-czko,	.	.	8g/	.	.	8b\	.
8g/	rzuć	.	.	8g/	.	.	8g/	.
8g/	Twe	.	.	8g/	.	.	8g/	.
8f/	wej-	.	.	8g/	.	.	8b\	.
=23	=23	=23	=23	=23	=23	=23	=23	=23
2e-X^>/	-rze-	.	.	2g/	.	.	2cc^\	.
8d/	-nie,	.	.	8g/	.	.	8b\	.
8r	.	.	.	8r	.	.	8r	.
4d/	Ła-	.	.	4g/	.	.	4b\	.
=24	=24	=24	=24	=24	=24	=24	=24	=24
4c#X/	-ska-	.	.	4e/	.	.	4b\	.
8c#/	-we	.	.	8e/	.	.	8a/	.
8c#/	na	.	.	8e/	.	.	8a/	.
8d/	nas,	.	.	8d/	.	.	8f#X/	.
!	!	!	!LO:DY:rj	!	!	!	!	!LO:DY:rj
8cn/	Przyj-	.	f	8f#X/	.	.	8dd\	f
8c/	-mij	.	.	8f#/	.	.	8dd\	.
8c/	we-	.	.	8f#/	.	.	8dd\	.
!!LO:LB:g=original
=25	=25	=25	=25	=25	=25	=25	=25	=25
2B/	-stchnie-	.	.	2g/	.	.	2dd\	.
4e/	-nie!	.	.	4g/	.	.	4g/	.
4r	.	.	.	4r	.	.	4r	.
=26	=26	=26	=26	=26	=26	=26	=26	=26
!	!	!	!LO:DY:rj	!	!	!	!	!LO:DY:rj
2a/	Po-	.	p	2a/	.	.	2cc\	p
4e/	-każ	.	.	4g#X/	.	.	4b\	.
4e/	nam	.	.	4g#/	.	.	4b\	.
=27	=27	=27	=27	=27	=27	=27	=27	=27
2f/	Ma-	.	.	2a/	.	.	2a/	.
2d/	-tko	.	.	2f/	.	.	2b/	.
=28	=28	=28	=28	=28	=28	=28	=28	=28
!	!	!	!	!	!	!	!	!
(4e/	Two-	.	.	2e/	.	.	2g#X/	<
4d/)	.	.	.	.	.	.	.	.
4.c/	-je-	.	.	4.e/	.	.	4.a/	.
8G#X/	-go	.	.	8e/	.	.	8b/	[
=29	=29	=29	=29	=29	=29	=29	=29	=29
!	!	!	!	!	!	!	!	!
2A/	Sy-	.	.	2e/	.	.	2cc\	>
4e/	-na	.	.	4g#X/	.	.	4b\	]
4r	.	.	.	4r	.	.	4r	.
!!LO:LB:g=original
=30	=30	=30	=30	=30	=30	=30	=30	=30
!	!	!	!LO:DY:rj	!	!	!	!	!LO:DY:rj
2e/	W gór-	.	f	2g#X/	.	.	2ee\	f
4f#X/	-nej	.	.	4a/	.	.	4ee\	.
4g#X/	Kra-	.	.	4b/	.	.	4dd\	.
=31	=31	=31	=31	=31	=31	=31	=31	=31
2a/	-i-	.	.	2a/	.	.	2cc\	.
2d/	-nie	.	.	2a/	.	.	2ff\	.
=32	=32	=32	=32	=32	=32	=32	=32	=32
*	*	*	*	*2\right	*	*	*	*
2g/	Sal-	.	.	2cc\	.	.	2ee\	.
4g/	-ve	.	.	4cc\	.	.	4dd\	.
4G/	Re-	.	.	4b\	.	.	4gg\	.
=33	=33	=33	=33	=33	=33	=33	=33	=33
2c/	-gi-	.	.	2cc\	.	.	2ee\	.
2c/	-na.	.	.	2cc\	.	.	2ee\	.
!!LO:PB:g=original
=34	=34	=34	=34	=34	=34	=34	=34	=34
(4f/	w gór-	.	.	2a/	.	.	(4dd\	.
4g/)	.	.	.	.	.	.	4cc#X\)	.
4f/	-nej	.	.	4a/	.	.	4dd\	.
4f#X/	Kra-	.	.	4a/	.	.	4dd#X\	.
=35	=35	=35	=35	=35	=35	=35	=35	=35
2g/	-i-	.	.	2cc\	.	.	2ee\	.
4e/	-nie	.	.	4g/	.	.	4cc\	.
(4e-X/	Sal-	.	.	(4g/	.	.	(4cc\	.
=36	=36	=36	=36	=36	=36	=36	=36	=36
2d/)	.	.	.	2f/)	.	.	4cc\	.
.	.	.	.	.	.	.	8b\L	.
.	.	.	.	.	.	.	8a\J	.
4G/	-ve	.	.	4g/	.	.	4b\)	.
4G/	Re-	.	.	4f/	.	.	4b\	.
=37	=37	=37	=37	=37	=37	=37	=37	=37
2c/	-gi-	.	.	2e/	.	.	2cc\	.
4c/	-na.	.	.	4e/	.	.	4cc\	.
4r	.	.	.	4r	.	.	4r	.
=38	=38	=38	=38	=38	=38	=38	=38	=38
(4a/	A-	.	.	1cc	.	.	(2ff\	.
4a-X/	.	.	.	.	.	.	.	.
4g/	.	.	.	.	.	.	4ee\	.
4f#X/)	.	.	.	.	.	.	4dd#X\)	.
!!LO:LB:g=original
=39	=39	=39	=39	=39	=39	=39	=39	=39
2g/	-men	.	.	2cc\	.	.	2ee\	.
(2an/	a-	.	.	(2cc\	.	.	(2cc\	.
=40	=40	=40	=40	=40	=40	=40	=40	=40
2f/	.	.	.	2cc\	.	.	1dd)	.
4g/	.	.	.	2b\)	.	.	.	.
4G/)	.	.	.	.	.	.	.	.
=41	=41	=41	=41	=41	=41	=41	=41	=41
2c/	-men	.	.	2cc\	.	.	2cc\	.
(>2c/	a-	.	.	(>2d#X/	.	.	(2a/	.
=42	=42	=42	=42	=42	=42	=42	=42	=42
1c)	.	.	.	1e	.	.	2g/	.
.	.	.	.	.	.	.	2cc\	.
=43	=43	=43	=43	=43	=43	=43	=43	=43
[1d	.	.	.	1f)	.	.	(2cc\)	.
.	.	.	.	.	.	.	4b\	.
.	.	.	.	.	.	.	4a\	.
!!LO:LB:g=original
=44	=44	=44	=44	=44	=44	=44	=44	=44
!	!	!	!	!	!	!	!LO:TX:t=P:problem=brak zakończenia łuku	!
(>2d/]	.	.	.	(2..f/	.	.	(2..b\)	.
4.G/	.	.	.	.	.	.	.	.
8c/)	.	.	.	8e/)	.	.	8cc\)	.
=45	=45	=45	=45	=45	=45	=45	=45	=45
1c	-men.	.	.	1e	.	.	1cc	.
==	==	==	==	==	==	==	==	==
*-	*-	*-	*-	*-	*-	*-	*-	*-
!!!system-decoration: [(s1,s2,s3)]
!!!RDF**kern: > = above
!!!RDF**kern: < = below
!!!EED: Andrzej Borzym
!!!EST: 2021-06-13
!!!ENC: Anastazja Marusiak
!!!END: 2021-06-04
